icons/numix/16x16/mimetypes/application-java.svg

<?xml version="1.0" encoding="UTF-8" standalone="no"?>
<svg
   xmlns:dc="http://purl.org/dc/elements/1.1/"
   xmlns:cc="http://creativecommons.org/ns#"
   xmlns:rdf="http://www.w3.org/1999/02/22-rdf-syntax-ns#"
   xmlns:svg="http://www.w3.org/2000/svg"
   xmlns="http://www.w3.org/2000/svg"
   xmlns:sodipodi="http://sodipodi.sourceforge.net/DTD/sodipodi-0.dtd"
   xmlns:inkscape="http://www.inkscape.org/namespaces/inkscape"
   width="16"
   height="16"
   viewBox="0 0 16 16"
   id="svg2"
   version="1.1"
   inkscape:version="0.48.5 r10040"
   sodipodi:docname="application-java.svg">
  <metadata
     id="metadata32">
    <rdf:RDF>
      <cc:Work
         rdf:about="">
        <dc:format>image/svg+xml</dc:format>
        <dc:type
           rdf:resource="http://purl.org/dc/dcmitype/StillImage" />
      </cc:Work>
    </rdf:RDF>
  </metadata>
  <defs
     id="defs30" />
  <sodipodi:namedview
     pagecolor="#ffffff"
     bordercolor="#666666"
     borderopacity="1"
     objecttolerance="10"
     gridtolerance="10"
     guidetolerance="10"
     inkscape:pageopacity="0"
     inkscape:pageshadow="2"
     inkscape:window-width="1280"
     inkscape:window-height="970"
     id="namedview28"
     showgrid="false"
     inkscape:zoom="14.75"
     inkscape:cx="13.146739"
     inkscape:cy="0.38091805"
     inkscape:window-x="0"
     inkscape:window-y="0"
     inkscape:window-maximized="1"
     inkscape:current-layer="svg2">
    <inkscape:grid
       type="xygrid"
       id="grid3020" />
  </sodipodi:namedview>
  <path
     style="fill:#e66f00;fill-opacity:1"
     d="M 2.667969,-4.46e-4 C 2.324219,-4.46e-4 2,0.337812 2,0.6964467 L 2,15.303108 C 2,15.641365 2.34375,16 2.667969,16 l 10.664062,0 C 13.65625,16 14,15.641365 14,15.303108 L 14,3.9995538 10,-4.46e-4 z"
     id="path4-7"
     inkscape:connector-curvature="0"
     sodipodi:nodetypes="ssssssccs" />
  <path
     style="fill:#000000;fill-opacity:0.19599998"
     d="m 10.583223,3.3315848 0.0154,0.01953 0.04005,-0.01953 z m 0.02978,0.667969 3.387,3.664062 0,-3.664062 z"
     id="path6"
     inkscape:connector-curvature="0"
     sodipodi:nodetypes="cccccccc" />
  <path
     style="fill:#ffffff;fill-opacity:0.39200003"
     d="m 10,-4.46e-4 3.996396,3.9999998 -3.383784,0 C 10.313513,3.9995538 10,3.6824368 10,3.3833378 z"
     id="path8"
     inkscape:connector-curvature="0"
     sodipodi:nodetypes="ccssc" />
  <g
     style="fill:#ffffff;fill-rule:evenodd"
     id="g10"
     transform="matrix(1.4287932,0,0,1.3331788,-3.4303358,-2.7765506)">
    <path
       d="m 7.167969,9.972656 c 0,0 -0.242188,0.132813 0.171875,0.179688 0.503906,0.05469 0.757812,0.04687 1.3125,-0.05469 0,0 0.144531,0.08984 0.347656,0.164063 -1.238281,0.503906 -2.804688,-0.03125 -1.832031,-0.289063"
       id="path12"
       inkscape:connector-curvature="0" />
    <path
       d="m 7.019531,9.316406 c 0,0 -0.273437,0.191406 0.140625,0.230469 0.535156,0.054687 0.960938,0.058594 1.691406,-0.078125 0,0 0.101563,0.097656 0.261719,0.152344 -1.5,0.414062 -3.167969,0.03125 -2.09375,-0.304688"
       id="path14"
       inkscape:connector-curvature="0" />
    <path
       d="m 8.292969,8.203125 c 0.304687,0.332031 -0.078125,0.632813 -0.078125,0.632813 0,0 0.773437,-0.378907 0.417968,-0.855469 C 8.300781,7.539062 8.046875,7.316406 9.425781,6.558594 c 0,0 -2.167969,0.511718 -1.132812,1.644531"
       id="path16"
       inkscape:connector-curvature="0" />
    <path
       d="m 9.933594,10.460938 c 0,0 0.175781,0.136718 -0.199219,0.246093 -0.714844,0.207031 -2.976563,0.269531 -3.601563,0.0078 -0.226562,-0.09375 0.195313,-0.222656 0.328126,-0.25 0.140624,-0.02734 0.21875,-0.02344 0.21875,-0.02344 -0.25,-0.167968 -1.621094,0.332032 -0.695313,0.472656 2.523437,0.390626 4.601563,-0.175781 3.949219,-0.453124"
       id="path18"
       inkscape:connector-curvature="0" />
    <path
       d="m 7.285156,8.636719 c 0,0 -1.148437,0.257812 -0.40625,0.351562 0.3125,0.039063 0.9375,0.03125 1.519532,-0.015625 C 8.875,8.933594 9.351562,8.855469 9.351562,8.855469 9.351562,8.855469 9.183594,8.921875 9.0625,9 7.894531,9.292969 5.640625,9.15625 6.289062,8.859375 6.839844,8.605469 7.285156,8.636719 7.285156,8.636719"
       id="path20"
       inkscape:connector-curvature="0" />
    <path
       d="M 9.347656,9.730469 C 10.535156,9.144531 9.988281,8.582031 9.605469,8.65625 9.511719,8.675781 9.46875,8.691406 9.46875,8.691406 c 0,0 0.035156,-0.050781 0.101562,-0.074218 0.757813,-0.25 1.339844,0.746093 -0.246093,1.140624 0,0 0.019531,-0.015624 0.023437,-0.027343"
       id="path22"
       inkscape:connector-curvature="0" />
    <path
       d="m 8.632812,5.332031 c 0,0 0.65625,0.625 -0.625,1.582031 C 6.980469,7.683594 7.773438,8.125 8.007812,8.625 7.410156,8.113281 6.96875,7.660156 7.265625,7.238281 7.699219,6.625 8.898438,6.324219 8.632812,5.332031"
       id="path24"
       inkscape:connector-curvature="0" />
    <path
       d="m 7.402344,11.316406 c 1.140625,0.06641 2.890625,-0.03906 2.929687,-0.550781 0,0 -0.07813,0.191406 -0.941406,0.347656 -0.972656,0.171875 -2.171875,0.152344 -2.882813,0.04297 0,0 0.144532,0.113281 0.894532,0.160156"
       id="path26"
       inkscape:connector-curvature="0" />
  </g>
</svg>

<svg width="16" xmlns="http://www.w3.org/2000/svg" height="16" viewBox="0 0 16 16" xmlns:xlink="http://www.w3.org/1999/xlink">
<path style="fill:#e66f00" d="M 2.667969 0.332031 C 2.324219 0.332031 2 0.65625 2 1 L 2 15 C 2 15.324219 2.34375 15.667969 2.667969 15.667969 L 13.332031 15.667969 C 13.65625 15.667969 14 15.324219 14 15 L 14 4.667969 L 9.667969 0.332031 Z "/>
<path style="fill:#000;fill-opacity:.196" d="M 9.667969 4 L 9.6875 4.019531 L 9.738281 4 Z M 10.332031 4.667969 L 14 8.332031 L 14 4.667969 Z "/>
<path style="fill:#fff;fill-opacity:.392" d="M 9.667969 0.332031 L 14 4.667969 L 10.332031 4.667969 C 10.007812 4.667969 9.667969 4.324219 9.667969 4 Z "/>
<g style="fill-rule:evenodd;fill:#fff">
<path d="M 7.167969 9.972656 C 7.167969 9.972656 6.925781 10.105469 7.339844 10.152344 C 7.84375 10.207031 8.097656 10.199219 8.652344 10.097656 C 8.652344 10.097656 8.796875 10.1875 9 10.261719 C 7.761719 10.765625 6.195312 10.230469 7.167969 9.972656 "/>
<path d="M 7.019531 9.316406 C 7.019531 9.316406 6.746094 9.507812 7.160156 9.546875 C 7.695312 9.601562 8.121094 9.605469 8.851562 9.46875 C 8.851562 9.46875 8.953125 9.566406 9.113281 9.621094 C 7.613281 10.035156 5.945312 9.652344 7.019531 9.316406 "/>
<path d="M 8.292969 8.203125 C 8.597656 8.535156 8.214844 8.835938 8.214844 8.835938 C 8.214844 8.835938 8.988281 8.457031 8.632812 7.980469 C 8.300781 7.539062 8.046875 7.316406 9.425781 6.558594 C 9.425781 6.558594 7.257812 7.070312 8.292969 8.203125 "/>
<path d="M 9.933594 10.460938 C 9.933594 10.460938 10.109375 10.597656 9.734375 10.707031 C 9.019531 10.914062 6.757812 10.976562 6.132812 10.714844 C 5.90625 10.621094 6.328125 10.492188 6.460938 10.464844 C 6.601562 10.4375 6.679688 10.441406 6.679688 10.441406 C 6.429688 10.273438 5.058594 10.773438 5.984375 10.914062 C 8.507812 11.304688 10.585938 10.738281 9.933594 10.460938 "/>
<path d="M 7.285156 8.636719 C 7.285156 8.636719 6.136719 8.894531 6.878906 8.988281 C 7.191406 9.027344 7.816406 9.019531 8.398438 8.972656 C 8.875 8.933594 9.351562 8.855469 9.351562 8.855469 C 9.351562 8.855469 9.183594 8.921875 9.0625 9 C 7.894531 9.292969 5.640625 9.15625 6.289062 8.859375 C 6.839844 8.605469 7.285156 8.636719 7.285156 8.636719 "/>
<path d="M 9.347656 9.730469 C 10.535156 9.144531 9.988281 8.582031 9.605469 8.65625 C 9.511719 8.675781 9.46875 8.691406 9.46875 8.691406 C 9.46875 8.691406 9.503906 8.640625 9.570312 8.617188 C 10.328125 8.367188 10.910156 9.363281 9.324219 9.757812 C 9.324219 9.757812 9.34375 9.742188 9.347656 9.730469 "/>
<path d="M 8.632812 5.332031 C 8.632812 5.332031 9.289062 5.957031 8.007812 6.914062 C 6.980469 7.683594 7.773438 8.125 8.007812 8.625 C 7.410156 8.113281 6.96875 7.660156 7.265625 7.238281 C 7.699219 6.625 8.898438 6.324219 8.632812 5.332031 "/>
<path d="M 7.402344 11.316406 C 8.542969 11.382812 10.292969 11.277344 10.332031 10.765625 C 10.332031 10.765625 10.253906 10.957031 9.390625 11.113281 C 8.417969 11.285156 7.21875 11.265625 6.507812 11.15625 C 6.507812 11.15625 6.652344 11.269531 7.402344 11.316406 "/>
</g>
</svg>
